svgs/solid/camera-movie.svg

<svg xmlns="http://www.w3.org/2000/svg" viewBox="0 0 576 512"><!-- Font Awesome Pro 6.0.0-alpha2 by @fontawesome - https://fontawesome.com License - https://fontawesome.com/license (Commercial License) --><path d="M368 288H32C14.327 288 0 302.327 0 320V320C0 337.673 14.327 352 32 352H64V464C64 490.51 85.49 512 112 512H368C394.51 512 416 490.51 416 464V336C416 309.49 394.51 288 368 288ZM352 0C303.375 0 261.75 27.375 240 67.25C218.25 27.375 176.625 0 128 0C57.25 0 0 57.25 0 128S57.25 256 128 256H352C422.75 256 480 198.75 480 128S422.75 0 352 0ZM128 192C92.625 192 64 163.375 64 128S92.625 64 128 64S192 92.625 192 128S163.375 192 128 192ZM352 192C316.625 192 288 163.375 288 128S316.625 64 352 64S416 92.625 416 128S387.375 192 352 192ZM524.801 262.455L448 320V448L524.76 505.539C545.871 521.367 576 506.309 576 479.928V288.047C576 261.688 545.896 246.641 524.801 262.455Z"/></svg>

<svg xmlns="http://www.w3.org/2000/svg" viewBox="0 0 576 512"><!--! Font Awesome Pro 6.0.0-alpha3 by @fontawesome - https://fontawesome.com License - https://fontawesome.com/license (Commercial License) --><path d="M368 288H31.1C14.33 288 0 302.3 0 319.1S14.33 352 31.1 352h32L64 464C64 490.5 85.49 512 112 512h256c26.51 0 48-21.49 48-48v-128C416 309.5 394.5 288 368 288zM352 0C303.4 0 261.8 27.38 240 67.25C218.3 27.38 176.6 0 128 0c-70.75 0-128 57.25-128 128S57.23 255.1 127.1 255.1L352 256c70.75 0 128-57.25 128-128S422.8 0 352 0zM128 192c-35.38 0-64-28.62-64-64s28.62-64 64-64s64 28.62 64 64S163.4 192 128 192zM352 192c-35.38 0-64-28.62-64-64s28.62-64 64-64s64 28.62 64 64S387.4 192 352 192zM524.8 262.5L448 320v128l76.76 57.54C545.9 521.4 576 506.3 576 479.9V288C576 261.7 545.9 246.6 524.8 262.5z"/></svg>
